X: 149
%
U:~=!turn!
T: The Duchess of Athole's Favorite
C:Neil Gow
O:Scotland
B:Keith Norman MacDonald : "The Skye collection of the best reels & strathspeys extant" : 1887
Z:Ralph Palmer
R:Strathspey
M:6/8
L:1/8
K:A
"Slow"c/B/ | (AE)C (A,C)E | AEA c(e/d/)(c/B/) | AEC A,(F/E/)D/C/ | B,BB TB2 Tc/B/ |
AEC A,CE | AEA c(d/c/)(B/A/) | EFA TBAB | cAA A2 ||
|: f/g/ | Taec (f/e/)d/c/B/A/ | aec (f/e/)d/c/B/A/ | T(B/A/)B/c/d/e/ f/e/d/c/B/A/ |
FBB B2 Tc/d/ | (ec).A (af).d | eaf {/f}ed/c/B/A/ | E>FA TBAB | cAA A2 :|


